X: 23154
T: Le Bon Chien
R: jig
M: 6/8
K: Cmajor
|:CDC E2E|CDC [G2C2]G|C3 DEF|FED FED|
CDC E2E|CDC [G2C2]G|C3 DEF|FDE C3:|
|:C3 G3|AGF G3|AGF GFE|FDE FED|
C3 G3|AGF GAB|cAF GFD|FDE C3:|

